X:1
T:Bona Patria, 76.76 D
T:Bona Patria, 76.76 D
T:Sacred Hymns & Tunes (Bristol, Englan
T:Public Domain Courtesy of the Cyber Hymnal™
C:Sacred Hymns & Tunes (Bristol, Englan
Z:Public Domain
Z:Courtesy of the Cyber Hymnal™
%%score ( 1 2 ) ( 3 4 )
L:1/8
Q:1/4=110
M:4/4
K:Db
V:1 treble 
V:2 treble 
V:3 bass 
V:4 bass 
V:1
 D2 | [DF]2 [DA]2 [DB]2 [DA]2 | G4 [DF]2 [DF]2 | [CE]2 [EG]2 [DF]2 D2 | E6 D2 | %5
 [DF]2 [DA]2 [DB]2 [DA]2 | G4 [DF]2 [CE]2 | [DF]2 [EA]2 [DA]2 [D=G]2 | [CA]6 [EA]2 | %9
 [Ec]2 [Dd]2 [CG]2 [DF]2 | [DB]4 [DA]2 [Ec]2 | [Dd]2 [DA]2 G2 [DF]2 | [CE]6 D2 | %13
 [DF]2 [DA]2 [DB]2 [DA]2 | G4 [DF]2 [DA]2 | [DB]2 [EG]2 [DF]2 E2 | D6 |] %17
V:2
 D2 | x8 | (D2 C2) x4 | x6 D2 | x6 D2 | x8 | (D2 C2) x4 | x8 | x8 | x8 | x8 | x4 (DC) x2 | x6 D2 | %13
 x8 | (D2 C2) x4 | x6 (DC) | D6 |] %17
V:3
 [D,F,]2 | [D,A,]2 [F,A,]2 G,2 [F,A,]2 | (B,2 G,2) [D,A,]2 [D,A,]2 | %3
 [A,,A,]2 [E,,B,]2 [F,,A,]2 (F,=G,) | [A,,A,]6 [D,F,]2 | [D,A,]2 [F,A,]2 G,2 [F,A,]2 | %6
 (B,2 A,2) [D,A,]2 [A,,A,]2 | [D,A,]2 [C,A,]2 [B,,F,]2 [B,,E,]2 | [A,,E,]6 [A,C]2 | %9
 [G,A,]2 [F,A,]2 [E,A,]2 [D,A,]2 | G,4 [D,F,]2 [G,A,]2 | [F,A,]2 [F,A,]2 [E,A,]2 [D,A,]2 | %12
 [A,,A,]6 [D,F,]2 | [D,A,]2 [F,A,]2 G,2 [F,A,]2 | B,2 A,2 [D,A,]2 [D,F,]2 | %15
 [G,,G,]2 [G,,B,]2 [A,,A,]2 [A,,G,]2 | [D,F,]6 |] %17
V:4
 x2 | x4 G,2 x2 | E,4 x4 | x6 B,,2 | x8 | x4 G,2 x2 | E,4 x4 | x8 | x8 | x8 | (G,,2 B,,2) x4 | x8 | %12
 x8 | x4 G,2 x2 | (B,2 A,2) x4 | x8 | x6 |] %17

